build/img/svg/liga-a-white.svg

<svg width="316" height="289" fill="none" xmlns="http://www.w3.org/2000/svg"><path d="M133.245 224.967l-4.768 5.075-12.813-.211 3.332-2.806 6.292-.259 1.143-.047-.81-.806-4.412-4.395 5.991-8.246 30.81-2.809-6.941 9.193-20.613 1.492-1.125.081.816.779 3.098 2.959z" fill="#fff" stroke="#000"/><path d="M157.952 208.173l-45.561 64.23 1.51 1.045 45.561-64.23-1.51-1.045z" fill="#000"/><path d="M162.126 204.275l-4.802 3.501 1.316.996h.009l1.316.996 2.161-5.493z" fill="#000"/><path d="M126.331 274.096l-3.64 7.201 7.913 6.784 9.661-.209" fill="#fff"/><path d="M130.263 289l-8.72-7.476 3.956-7.837 1.652.816-3.322 6.565 7.106 6.091 9.305-.199.039 1.822-10.016.218z" fill="#000"/><path d="M154.449 250.174l3.976-3.397 1.229 4.621" fill="#fff"/><path d="M158.772 251.637l-.864-3.217-2.852 2.439-1.201-1.376 5.081-4.345 1.613 6.034-1.777.465z" fill="#000"/><path d="M149.535 248.845l3.966-3.387 1.239 4.62" fill="#fff"/><path d="M153.847 250.307l-.855-3.207-2.862 2.438-1.2-1.385 5.089-4.336 1.604 6.025-1.776.465z" fill="#000"/><path d="M144.418 247.388l2.746-4.887 2.459 6.12" fill="#fff"/><path d="M148.778 248.953l-1.748-4.336-1.796 3.207-1.613-.883 3.688-6.556 3.178 7.894-1.709.674z" fill="#000"/><path d="M143.703 263.742c.452-8.994 4.994-9.099 4.888-8.539l6.454.218c2.909-.218 4.455-1.072 4.609-4.022l-10.102-2.391-3.803.949-.74-4.83 3.544-5.303 3.198 2.675 3.601-5.474 3.659 3.387 2.871-4.611 3.851 3.786 2.285-5.332.145-1.718.172-2.134-5.118-9.422-16.834 4.849-9.527 4.857s-9.392 1.49-8.364 12.239v10.342l-3.112 8.112-16.796-9.754-1.709 1.727c2.458 7.922 7.241 13.71 14.232 18.302l1.546 1.347 7.51 3.463-1.719 3.596 4.763 4.108 4.408 3.909h10.928l.01-1.234c0-2.172-.269-4.781-3.39-4.914h-4.149l-2.737-3.909s2.997-6.736 2.622-8.937" fill="#fff"/><path d="M149.455 288.989h-12.196l-4.667-4.136-5.272-4.554 1.613-3.397-6.895-3.226-1.498-1.309c-7.385-4.867-12.148-11.006-14.549-18.757l-.163-.522 2.603-2.618 16.469 9.563 2.66-6.945v-10.18c-1.018-10.588 7.673-12.837 8.979-13.112l9.574-4.867 17.555-5.057 5.599 10.313-.404 4.402-2.813 6.575-3.995-3.918-2.862 4.582-3.678-3.406-3.572 5.437-3.198-2.676-2.776 4.156.538 3.491 3.044-.759 11.063 2.619-.038.759c-.202 3.956-2.871 4.696-5.455 4.886h-.048l-7.404-.256a3.115 3.115 0 00-.586.389c-.816.692-2.218 2.571-2.448 7.315l-1.844-.095c.346-6.86 3.044-8.786 4.187-9.298.787-.351 1.556-.38 2.036-.085l6.021.208c2.391-.189 3.361-.787 3.63-2.419l-9.104-2.154-4.571 1.139-.951-6.167 4.312-6.452 3.188 2.666 3.64-5.521 3.63 3.368 2.89-4.64 3.707 3.643 1.69-3.956.279-3.444-4.638-8.539-16.038 4.621-9.699 4.905c-.346.057-8.528 1.508-7.596 11.262v10.588l-3.553 9.269-17.113-9.914-.816.825c2.352 7.201 6.712 12.704 13.694 17.296l.096.076 1.44 1.262 8.23 3.795-1.815 3.804 4.235 3.662 4.158 3.682h9.661v-.332c0-2.875-.653-3.919-2.506-4.004h-4.591l-3.303-4.716.211-.464c1.114-2.505 2.804-7.012 2.555-8.425l1.815-.304c.365 2.125-1.69 7.173-2.478 8.994l2.17 3.103h3.669c4.302.18 4.302 4.279 4.302 5.825l-.01 2.144z" fill="#000"/><path d="M140.678 269.843c1.229-1.565 3.985-6.831 3.985-6.831l3.217-2.808.086-1.11.404-5.161 3.63-3.463c-3.601-5.446-9.19-.987-9.19-.987l-.5 7.116-1.748-.342-3.351 1.139" fill="#fff"/><path d="M141.475 270.471l-1.614-1.243c.961-1.224 3.131-5.228 3.88-6.67l.086-.171 3.054-2.656.48-6.253 3.265-3.112c-.739-.873-1.594-1.385-2.554-1.537-1.786-.275-3.572.731-4.302 1.205l-.548 7.78-2.612-.503-3.092 1.044-.663-1.907 3.611-1.224.884.171.451-6.423.346-.276c.125-.095 3.025-2.372 6.252-1.869 1.776.275 3.274 1.319 4.446 3.093l.461.702-3.957 3.776-.49 6.3-3.389 2.951c-.49.939-2.833 5.351-3.995 6.822zM143.954 236.149l-6.575 1.819.494 1.755 6.576-1.819-.495-1.755z" fill="#000"/><path d="M143.577 236.33l-4.827 4.087 1.2 1.384 4.827-4.088-1.2-1.383zM147.294 230.897l-.509-1.746 10.064-2.837 2.094 1.433-1.047 1.499-1.383-.949-9.219 2.6z" fill="#000"/><path d="M165.359 243.183l-.168 1.796 7.871.716.167-1.795-7.87-.717zM170.61 254.635l-4.82-1.575 1.017-3.473-5.608-1.66.615-2.021 7.615 2.268-1.018 3.52 2.862.939-.663 2.002zM140.894 269.074c-1.806-10.484-10.218-6.907-10.218-6.907l10.218 6.907z" fill="#fff"/><path d="M139.975 269.225c-.528-3.083-1.7-5.142-3.476-6.1-2.478-1.338-5.436-.133-5.464-.124l-.73-1.669c.153-.067 3.783-1.575 7.058.189 2.305 1.234 3.793 3.729 4.427 7.401l-1.815.303z" fill="#000"/><path d="M122.073 242.501l3.073 3.178 1.153 4.222-.269 1.623-4.715 3.187-2.526-8.519 3.284-3.691z" fill="#fff"/><path d="M120.783 256.172l-3.025-10.209 4.283-4.81 3.918 4.061 1.277 4.63-.365 2.201-6.088 4.127zm-.97-9.763l2.026 6.841 3.342-2.258.173-1.044-1.047-3.804-2.218-2.296-2.276 2.561z" fill="#000"/><path d="M115.549 237.815s-.759-3.074-2.363-4.364c-1.748-1.404-2.458-1.575-2.458-1.575l.029 2.011-.269-.246a3.048 3.048 0 00-4.149.057l1.277.664a6.434 6.434 0 00-3.053 3.301l-.308.75 1.402.36-1.555 7.135 4.388-5.882 2.622-3.359 4.437 1.148z" fill="#fff"/><path d="M102.293 249.863l2.276-10.427-1.565-.408.701-1.708a7.245 7.245 0 012.112-2.865l-1.027-.541.902-.863a3.961 3.961 0 014.12-.863l-.019-1.461 1.143.265c.211.048 1.056.323 2.833 1.755 1.796 1.443 2.593 4.507 2.679 4.858l.365 1.48-5.339-1.376-2.248 2.885-6.933 9.269zm3.207-12.068l1.239.322-.835 3.843 1.844-2.467 3.005-3.852.788.199-1.681-1.527a2.09 2.09 0 00-1.421-.55h-.019l1.181.616-1.575.797a5.56 5.56 0 00-2.526 2.619zm6.194-1.917l2.44.636c-.365-.863-.884-1.831-1.537-2.353a17.764 17.764 0 00-.941-.711l.038 2.428z" fill="#000"/><path d="M129.406 269.568l6.607 1.366v-.057c.096-1.688-.912-3.244-2.496-3.88l-.25-.104.614-9.355-9.747-3.378c-2.093.323-3.217 2.619-2.151 4.431l.365.636 6.377 1.271.816 6.518-.135 2.552z" fill="#fff"/><path d="M136.899 271.978l-1.057-.161-7.384-1.528.172-3.254-.729-5.788-6.137-1.223-.576-.987a3.847 3.847 0 01-.135-3.624 3.946 3.946 0 012.949-2.164l.23-.038 10.631 3.682-.615 9.402a4.859 4.859 0 012.708 4.611l-.057 1.072zm-6.521-3.14l4.6.948a3.05 3.05 0 00-1.796-1.945l-.874-.341.605-9.327-8.854-3.064a2.068 2.068 0 00-1.363 1.11 1.99 1.99 0 00.076 1.926l.164.275 6.626 1.319.912 7.248-.096 1.851z" fill="#000"/><path d="M123.326 239.426c1.114-.797 1.066-1.736.807-3.074l-.029-.171-1.7.92a3.929 3.929 0 00-5.877-.322c-1.239 1.243-1.402 3.188-.509 4.696l.01.01c.941 1.575 2.861 2.4 4.619 1.821a3.954 3.954 0 001.411-.806l.096.038.077-.209a3.839 3.839 0 001.095-2.903z" fill="#fff"/><path d="M119.503 244.397c-1.691 0-3.352-.91-4.274-2.457-1.143-1.916-.874-4.298.634-5.806 1.008-1.006 2.324-1.518 3.736-1.433a4.86 4.86 0 012.986 1.252l2.19-1.176.259 1.404c.25 1.328.365 2.609-.797 3.672a4.728 4.728 0 01-1.22 2.96l-.345.92-.471-.189a5.096 5.096 0 01-1.268.626c-.47.152-.95.227-1.43.227zm-.192-7.874c-.798 0-1.547.313-2.132.901-.922.92-1.076 2.4-.365 3.596.749 1.262 2.237 1.859 3.543 1.432a3.006 3.006 0 001.076-.616l.134-.133a2.935 2.935 0 00.836-2.22l-.029-.494.413-.294c.403-.284.576-.55.576-1.072l-1.21.655-.48-.617a2.98 2.98 0 00-2.18-1.129c-.058-.009-.115-.009-.182-.009z" fill="#000"/><path d="M121.924 236.282l-2.865 1.662.933 1.571 2.866-1.662-.934-1.571z" fill="#000"/><path d="M119.069 249.795c1.697 0 3.073-1.359 3.073-3.036s-1.376-3.036-3.073-3.036-3.073 1.359-3.073 3.036 1.376 3.036 3.073 3.036z" fill="#fff"/><path d="M119.071 250.707a4.039 4.039 0 01-2.583-.939 3.902 3.902 0 01-1.393-2.685 3.896 3.896 0 01.941-2.875 3.96 3.96 0 012.718-1.375c2.199-.181 4.12 1.442 4.302 3.614.173 2.163-1.459 4.07-3.658 4.251-.106.009-.221.009-.327.009zm.01-6.072c-.058 0-.116 0-.173.01a2.177 2.177 0 00-1.469.74 2.08 2.08 0 00-.5 1.546c.048.569.317 1.082.749 1.452.432.37.999.541 1.566.503a2.136 2.136 0 001.968-2.296 2.15 2.15 0 00-2.141-1.955z" fill="#000"/><path d="M129.883 248.213c2.977-.54 4.014-.427 4.667 1.424.355.996-.24 2.077-1.191 2.134l-2.852.19-.624-3.748z" fill="#fff"/><path d="M129.735 252.928l-.903-5.446.884-.162c2.823-.521 4.753-.654 5.704 2.012.278.787.182 1.66-.279 2.334a2.24 2.24 0 01-1.738 1.005l-3.668.257zm1.21-3.966l.336 2.04 2.017-.133a.407.407 0 00.316-.199.815.815 0 00.068-.722c-.327-.92-.461-1.318-2.737-.986zM129.335 260.173l-.315 1.794 4.162.715.316-1.794-4.163-.715z" fill="#000"/><path d="M119.416 258.585l-.955-11.639 12.121-.974.955 11.641-5.731 4.391-6.39-3.419z" fill="#2C39F2" stroke="#000"/><path d="M129.036 255.15c.125-.01.269-.038.413-.095l.096 1.385a4.356 4.356 0 01-1.21.304c-.778.056-1.392-.171-1.748-.703-.71.617-1.565 1.016-2.698 1.092-1.441.104-2.737-.598-2.843-2.04-.134-1.85 1.662-2.562 3.188-2.666a8.349 8.349 0 011.835.066l-.02-.256c-.057-.731-.691-1.186-1.891-1.101-1.057.076-1.979.418-2.67.74l-.135-1.821c.605-.247 1.748-.617 2.939-.702 2.295-.162 3.832.626 4.005 3.026l.172 2.325c.02.379.289.465.567.446zm-6.031-.332c.048.597.653.939 1.393.891.682-.047 1.325-.275 1.853-.787l-.096-1.252a6.882 6.882 0 00-1.45-.076c-.893.057-1.757.408-1.7 1.224zM1.47 121.738l15.211 36.251 3.787-7.762 15.211 36.29 3.543-7.329 15.212 36.29 3.297-6.738 15.212 36.251 6.556-13.476-15.212-36.291-3.258 6.739-15.211-36.251-3.583 7.289-15.21-36.29-3.787 7.762-15.212-36.25-3.258 6.738-3.298 6.777zM250.333 198.436l-16.862 10.985 4.261 1.186-16.882 10.987 4.02 1.104-16.882 10.987 3.7 1.036-16.862 10.984 7.395 2.05 16.881-10.988-3.695-1.015 16.861-10.984-4.003-1.127 16.881-10.988-4.26-1.186 16.862-10.984-3.696-1.015-3.719-1.032zM95.629 86.681l1.55 20.043 3.088-3.162 1.544 20.062 2.901-2.99 1.543 20.061 2.686-2.742 1.551 20.042 5.352-5.491-1.544-20.062-2.666 2.749-1.551-20.042-2.913 2.964-1.543-20.061-3.089 3.161-1.55-20.042-2.667 2.749-2.692 2.761zM248.946 8.927l-29.396 40.84 11.013-1.077-29.44 40.867 10.377-1.052-29.439 40.867 9.567-.923-29.396 40.84 19.107-1.889 29.44-40.867-9.541.967 29.396-40.841-10.36.982 29.44-40.866-11.013 1.077 29.396-40.84-9.541.966-9.61.949z" fill="#fff"/></svg>

<svg width="316" height="289" viewBox="0 0 316 289" fill="none" xmlns="http://www.w3.org/2000/svg">
<path d="M133.245 224.967L128.477 230.042L115.664 229.831L118.996 227.025L125.288 226.766L126.431 226.719L125.621 225.913L121.209 221.518L127.2 213.272L158.01 210.463L151.069 219.656L130.456 221.148L129.331 221.229L130.147 222.008L133.245 224.967Z" fill="white" stroke="black"/>
<path d="M157.952 208.173L112.391 272.403L113.901 273.448L159.462 209.218L157.952 208.173Z" fill="black"/>
<path d="M162.126 204.275L157.324 207.776L158.64 208.772H158.649L159.965 209.768L162.126 204.275Z" fill="black"/>
<path d="M126.331 274.096L122.691 281.297L130.604 288.081L140.265 287.872" fill="white"/>
<path d="M130.263 289L121.543 281.524L125.499 273.687L127.151 274.503L123.829 281.068L130.935 287.159L140.24 286.96L140.279 288.782L130.263 289Z" fill="black"/>
<path d="M154.449 250.174L158.425 246.777L159.654 251.398" fill="white"/>
<path d="M158.772 251.637L157.908 248.42L155.056 250.859L153.855 249.483L158.936 245.138L160.549 251.172L158.772 251.637Z" fill="black"/>
<path d="M149.535 248.845L153.501 245.458L154.74 250.078" fill="white"/>
<path d="M153.847 250.307L152.992 247.1L150.13 249.538L148.93 248.153L154.019 243.817L155.623 249.842L153.847 250.307Z" fill="black"/>
<path d="M144.418 247.388L147.164 242.501L149.623 248.621" fill="white"/>
<path d="M148.778 248.953L147.03 244.617L145.234 247.824L143.621 246.941L147.309 240.385L150.487 248.279L148.778 248.953Z" fill="black"/>
<path d="M143.703 263.742C144.155 254.748 148.697 254.643 148.591 255.203L155.045 255.421C157.954 255.203 159.5 254.349 159.654 251.399L149.552 249.008L145.749 249.957L145.009 245.127L148.553 239.824L151.751 242.499L155.352 237.025L159.011 240.412L161.882 235.801L165.733 239.587L168.018 234.255L168.163 232.537L168.335 230.403L163.217 220.981L146.383 225.83L136.856 230.687C136.856 230.687 127.464 232.177 128.492 242.926V253.268L125.38 261.38L108.584 251.626L106.875 253.353C109.333 261.275 114.116 267.063 121.107 271.655L122.653 273.002L130.163 276.465L128.444 280.061L133.207 284.169L137.615 288.078H148.543L148.553 286.844C148.553 284.672 148.284 282.063 145.163 281.93H141.014L138.277 278.021C138.277 278.021 141.274 271.285 140.899 269.084" fill="white"/>
<path d="M149.455 288.989H137.259L132.592 284.853L127.32 280.299L128.933 276.902L122.038 273.676L120.54 272.367C113.155 267.5 108.392 261.361 105.991 253.61L105.828 253.088L108.431 250.47L124.9 260.033L127.56 253.088V242.908C126.542 232.32 135.233 230.071 136.539 229.796L146.113 224.929L163.668 219.872L169.267 230.185L168.863 234.587L166.05 241.162L162.055 237.244L159.193 241.826L155.515 238.42L151.943 243.857L148.745 241.181L145.969 245.337L146.507 248.828L149.551 248.069L160.614 250.688L160.576 251.447C160.374 255.403 157.705 256.143 155.121 256.333H155.073L147.669 256.077C147.496 256.162 147.304 256.286 147.083 256.466C146.267 257.158 144.865 259.037 144.635 263.781L142.791 263.686C143.137 256.826 145.835 254.9 146.978 254.388C147.765 254.037 148.534 254.008 149.014 254.303L155.035 254.511C157.426 254.322 158.396 253.724 158.665 252.092L149.561 249.938L144.99 251.077L144.039 244.91L148.351 238.458L151.539 241.124L155.179 235.603L158.809 238.971L161.699 234.331L165.406 237.974L167.096 234.018L167.375 230.574L162.737 222.035L146.699 226.656L137 231.561C136.654 231.618 128.472 233.069 129.404 242.823V253.411L125.851 262.68L108.738 252.766L107.922 253.591C110.274 260.792 114.634 266.295 121.616 270.887L121.712 270.963L123.152 272.225L131.382 276.02L129.567 279.824L133.802 283.486L137.96 287.168H147.621V286.836C147.621 283.961 146.968 282.917 145.115 282.832H140.524L137.221 278.116L137.432 277.652C138.546 275.147 140.236 270.64 139.987 269.227L141.802 268.923C142.167 271.048 140.112 276.096 139.324 277.917L141.494 281.02H145.163C149.465 281.2 149.465 285.299 149.465 286.845L149.455 288.989Z" fill="black"/>
<path d="M140.678 269.843C141.907 268.278 144.663 263.012 144.663 263.012L147.88 260.204L147.966 259.094L148.37 253.933L152 250.47C148.399 245.024 142.81 249.483 142.81 249.483L142.31 256.599L140.562 256.257L137.211 257.396" fill="white"/>
<path d="M141.475 270.471L139.861 269.228C140.822 268.004 142.992 264 143.741 262.558L143.827 262.387L146.881 259.731L147.361 253.478L150.626 250.366C149.887 249.493 149.032 248.981 148.072 248.829C146.286 248.554 144.5 249.56 143.77 250.034L143.222 257.814L140.61 257.311L137.518 258.355L136.855 256.448L140.466 255.224L141.35 255.395L141.801 248.972L142.147 248.696C142.272 248.601 145.172 246.324 148.399 246.827C150.175 247.102 151.673 248.146 152.845 249.92L153.306 250.622L149.349 254.398L148.859 260.698L145.47 263.649C144.98 264.588 142.637 269 141.475 270.471Z" fill="black"/>
<path d="M143.954 236.149L137.379 237.968L137.873 239.723L144.449 237.904L143.954 236.149Z" fill="black"/>
<path d="M143.577 236.33L138.75 240.417L139.95 241.801L144.777 237.713L143.577 236.33Z" fill="black"/>
<path d="M147.294 230.897L146.785 229.151L156.849 226.314L158.943 227.747L157.896 229.246L156.513 228.297L147.294 230.897Z" fill="black"/>
<path d="M165.359 243.183L165.191 244.979L173.062 245.695L173.229 243.9L165.359 243.183Z" fill="white"/>
<path d="M170.61 254.635L165.79 253.06L166.807 249.587L161.199 247.927L161.814 245.906L169.429 248.174L168.411 251.694L171.273 252.633L170.61 254.635Z" fill="white"/>
<path d="M140.894 269.074C139.088 258.59 130.676 262.167 130.676 262.167L140.894 269.074Z" fill="white"/>
<path d="M139.975 269.225C139.447 266.142 138.275 264.083 136.499 263.125C134.021 261.787 131.063 262.992 131.035 263.001L130.305 261.332C130.458 261.265 134.088 259.757 137.363 261.521C139.668 262.755 141.156 265.25 141.79 268.922L139.975 269.225Z" fill="black"/>
<path d="M122.073 242.501L125.146 245.679L126.299 249.901L126.03 251.524L121.315 254.711L118.789 246.192L122.073 242.501Z" fill="white"/>
<path d="M120.783 256.172L117.758 245.963L122.041 241.153L125.959 245.214L127.236 249.844L126.871 252.045L120.783 256.172ZM119.813 246.409L121.839 253.25L125.181 250.992L125.354 249.948L124.307 246.144L122.089 243.848L119.813 246.409Z" fill="black"/>
<path d="M115.549 237.815C115.549 237.815 114.79 234.741 113.186 233.451C111.438 232.047 110.728 231.876 110.728 231.876L110.757 233.887L110.488 233.641C109.307 232.569 107.482 232.597 106.339 233.698L107.616 234.362C106.233 235.064 105.148 236.231 104.563 237.663L104.255 238.413L105.657 238.773L104.102 245.908L108.49 240.026L111.112 236.667L115.549 237.815Z" fill="white"/>
<path d="M102.293 249.863L104.569 239.436L103.004 239.028L103.705 237.32C104.166 236.201 104.886 235.214 105.817 234.455L104.79 233.914L105.692 233.051C106.816 231.969 108.429 231.675 109.812 232.188L109.793 230.727L110.936 230.992C111.147 231.04 111.992 231.315 113.769 232.747C115.565 234.19 116.362 237.254 116.448 237.605L116.813 239.085L111.474 237.709L109.226 240.594L102.293 249.863ZM105.5 237.795L106.739 238.117L105.904 241.96L107.748 239.493L110.753 235.641L111.541 235.84L109.86 234.313C109.457 233.943 108.948 233.763 108.439 233.763C108.429 233.763 108.429 233.763 108.42 233.763L109.601 234.379L108.026 235.176C106.912 235.746 106.019 236.666 105.5 237.795ZM111.694 235.878L114.134 236.514C113.769 235.651 113.25 234.683 112.597 234.161C112.232 233.867 111.925 233.639 111.656 233.45L111.694 235.878Z" fill="black"/>
<path d="M129.406 269.568L136.013 270.934V270.877C136.109 269.189 135.101 267.633 133.517 266.997L133.267 266.893L133.881 257.538L124.134 254.16C122.041 254.483 120.917 256.779 121.983 258.591L122.348 259.227L128.725 260.498L129.541 267.016L129.406 269.568Z" fill="white"/>
<path d="M136.899 271.978L135.842 271.817L128.458 270.289L128.63 267.035L127.901 261.247L121.764 260.024L121.188 259.037C120.544 257.927 120.487 256.57 121.053 255.413C121.62 254.255 122.715 253.449 124.002 253.249L124.232 253.211L134.863 256.893L134.248 266.295C135.986 267.158 137.062 268.961 136.956 270.906L136.899 271.978ZM130.378 268.838L134.978 269.786C134.709 268.913 134.066 268.192 133.182 267.841L132.308 267.5L132.913 258.173L124.059 255.109C123.464 255.261 122.964 255.659 122.696 256.219C122.388 256.845 122.417 257.547 122.772 258.145L122.936 258.42L129.562 259.739L130.474 266.987L130.378 268.838Z" fill="black"/>
<path d="M123.326 239.426C124.44 238.629 124.392 237.69 124.133 236.352L124.104 236.181L122.404 237.101C121.021 235.337 118.284 235.024 116.527 236.779C115.288 238.022 115.125 239.967 116.018 241.475L116.028 241.485C116.969 243.06 118.889 243.885 120.647 243.306C121.194 243.126 121.665 242.851 122.058 242.5L122.154 242.538L122.231 242.329C122.999 241.551 123.384 240.488 123.326 239.426Z" fill="white"/>
<path d="M119.503 244.397C117.812 244.397 116.151 243.487 115.229 241.94C114.086 240.024 114.355 237.642 115.863 236.134C116.871 235.128 118.187 234.616 119.599 234.701C120.722 234.767 121.769 235.213 122.585 235.953L124.775 234.777L125.034 236.181C125.284 237.509 125.399 238.79 124.237 239.853C124.189 240.944 123.757 241.997 123.017 242.813L122.672 243.733L122.201 243.544C121.817 243.809 121.385 244.018 120.933 244.17C120.463 244.322 119.983 244.397 119.503 244.397ZM119.311 236.523C118.513 236.523 117.764 236.836 117.179 237.424C116.257 238.344 116.103 239.824 116.814 241.02C117.563 242.282 119.051 242.879 120.357 242.452C120.761 242.32 121.126 242.111 121.433 241.836L121.567 241.703C122.143 241.115 122.451 240.308 122.403 239.483L122.374 238.989L122.787 238.695C123.19 238.411 123.363 238.145 123.363 237.623L122.153 238.278L121.673 237.661C121.154 236.997 120.357 236.58 119.493 236.532C119.435 236.523 119.378 236.523 119.311 236.523Z" fill="black"/>
<path d="M121.924 236.282L119.059 237.944L119.992 239.515L122.858 237.853L121.924 236.282Z" fill="black"/>
<path d="M119.069 249.795C120.766 249.795 122.142 248.436 122.142 246.759C122.142 245.082 120.766 243.723 119.069 243.723C117.372 243.723 115.996 245.082 115.996 246.759C115.996 248.436 117.372 249.795 119.069 249.795Z" fill="white"/>
<path d="M119.071 250.707C118.13 250.707 117.218 250.375 116.488 249.768C115.672 249.085 115.182 248.127 115.095 247.083C115.009 246.03 115.345 245.015 116.036 244.208C116.728 243.402 117.688 242.918 118.754 242.833C120.953 242.652 122.874 244.275 123.056 246.447C123.229 248.61 121.597 250.517 119.398 250.698C119.292 250.707 119.177 250.707 119.071 250.707ZM119.081 244.635C119.023 244.635 118.965 244.635 118.908 244.645C118.332 244.692 117.813 244.958 117.439 245.385C117.064 245.821 116.891 246.371 116.939 246.931C116.987 247.5 117.256 248.013 117.688 248.383C118.12 248.753 118.687 248.924 119.254 248.886C120.435 248.791 121.318 247.766 121.222 246.59C121.126 245.48 120.185 244.635 119.081 244.635Z" fill="black"/>
<path d="M129.883 248.213C132.86 247.673 133.897 247.786 134.55 249.637C134.905 250.633 134.31 251.714 133.359 251.771L130.507 251.961L129.883 248.213Z" fill="white"/>
<path d="M129.735 252.928L128.832 247.482L129.716 247.32C132.539 246.799 134.469 246.666 135.42 249.332C135.698 250.119 135.602 250.992 135.141 251.666C134.738 252.263 134.104 252.633 133.403 252.671L129.735 252.928ZM130.945 248.962L131.281 251.002L133.298 250.869C133.461 250.859 133.557 250.755 133.614 250.67C133.72 250.518 133.787 250.243 133.682 249.948C133.355 249.028 133.221 248.63 130.945 248.962Z" fill="black"/>
<path d="M129.335 260.173L129.02 261.967L133.182 262.682L133.498 260.888L129.335 260.173Z" fill="black"/>
<path d="M119.416 258.585L118.461 246.946L130.582 245.972L131.537 257.613L125.806 262.004L119.416 258.585Z" fill="#2C39F2" stroke="black"/>
<path d="M129.036 255.15C129.161 255.14 129.305 255.112 129.449 255.055L129.545 256.44C129.199 256.582 128.758 256.706 128.335 256.744C127.557 256.8 126.943 256.573 126.587 256.041C125.877 256.658 125.022 257.057 123.889 257.133C122.448 257.237 121.152 256.535 121.046 255.093C120.912 253.243 122.708 252.531 124.234 252.427C124.839 252.379 125.521 252.408 126.069 252.493L126.049 252.237C125.992 251.506 125.358 251.051 124.158 251.136C123.101 251.212 122.179 251.554 121.488 251.876L121.353 250.055C121.958 249.808 123.101 249.438 124.292 249.353C126.587 249.191 128.124 249.979 128.297 252.379L128.469 254.704C128.489 255.083 128.758 255.169 129.036 255.15ZM123.005 254.818C123.053 255.415 123.658 255.757 124.398 255.709C125.08 255.662 125.723 255.434 126.251 254.922L126.155 253.67C125.781 253.613 125.214 253.556 124.705 253.594C123.812 253.651 122.948 254.002 123.005 254.818Z" fill="white"/>
<path d="M1.46991 121.738L16.6815 157.989L20.4681 150.227L35.6793 186.517L39.2223 179.188L54.4335 215.478L57.7312 208.74L72.9428 244.991L79.4985 231.515L64.2874 195.224L61.0293 201.963L45.8177 165.712L42.2354 173.001L27.0243 136.711L23.2377 144.473L8.02614 108.223L4.76814 114.961L1.46991 121.738Z" fill="white"/>
<path d="M250.333 198.436L233.471 209.421L237.732 210.607L220.85 221.594L224.87 222.698L207.988 233.685L211.688 234.721L194.826 245.705L202.221 247.755L219.102 236.767L215.407 235.752L232.268 224.768L228.265 223.641L245.146 212.653L240.886 211.467L257.748 200.483L254.052 199.468L250.333 198.436Z" fill="white"/>
<path d="M95.6288 86.6814L97.1792 106.724L100.267 103.562L101.811 123.624L104.712 120.634L106.255 140.695L108.941 137.953L110.492 157.995L115.844 152.504L114.3 132.442L111.634 135.191L110.083 115.149L107.17 118.113L105.627 98.0518L102.538 101.213L100.988 81.1709L98.3214 83.9199L95.6288 86.6814Z" fill="white"/>
<path d="M248.946 8.92677L219.55 49.7674L230.563 48.6904L201.123 89.557L211.5 88.5049L182.061 129.372L191.628 128.449L162.232 169.289L181.339 167.4L210.779 126.533L201.238 127.5L230.634 86.6589L220.274 87.6414L249.714 46.7747L238.701 47.8518L268.097 7.01122L258.556 7.9778L248.946 8.92677Z" fill="white"/>
</svg>
